svgs/duotone/square-g.svg

<svg xmlns="http://www.w3.org/2000/svg" viewBox="0 0 448 512"><!-- Font Awesome Pro 6.0.0-alpha2 by @fontawesome - https://fontawesome.com License - https://fontawesome.com/license (Commercial License) --><defs><style>.fa-secondary{opacity:.4}</style></defs><path d="M384 32H64C28.654 32 0 60.654 0 96V416C0 451.346 28.654 480 64 480H384C419.346 480 448 451.346 448 416V96C448 60.654 419.346 32 384 32ZM352 274.906C352 276.359 351.875 277.828 351.594 279.25C347.219 303.078 334.031 326.953 314.5 346.516C290.344 370.688 258.188 384 224 384S157.656 370.688 133.5 346.516C83.594 296.609 83.594 215.391 133.5 165.484C181.406 117.547 261.469 115.312 312 160.609C321.875 169.453 322.719 184.625 313.875 194.5C305 204.438 289.812 205.219 280 196.359C248.094 167.797 197.656 169.172 167.438 199.422C136.25 230.625 136.25 281.375 167.438 312.578C197.625 342.797 250.375 342.797 280.562 312.578C288.156 304.969 294.25 296.578 298.469 288H248C234.75 288 224 277.25 224 264S234.75 240 248 240H328C341.25 240 352 250.75 352 264V274.906Z" class="fa-secondary"/><path d="M327.93 240H247.93C234.68 240 223.93 250.75 223.93 264S234.68 288 247.93 288H298.398C294.18 296.578 288.086 304.969 280.492 312.578C250.305 342.797 197.555 342.797 167.367 312.578C136.18 281.375 136.18 230.625 167.367 199.422C197.586 169.172 248.023 167.797 279.93 196.359C289.742 205.219 304.93 204.438 313.805 194.5C322.648 184.625 321.805 169.453 311.93 160.609C261.398 115.313 181.336 117.547 133.43 165.484C83.523 215.391 83.523 296.609 133.43 346.516C157.586 370.688 189.742 384 223.93 384S290.273 370.688 314.43 346.516C333.961 326.953 347.148 303.078 351.523 279.25C351.805 277.828 351.93 276.359 351.93 274.906V264C351.93 250.75 341.18 240 327.93 240Z" class="fa-primary"/></svg>

<svg xmlns="http://www.w3.org/2000/svg" viewBox="0 0 448 512"><!--! Font Awesome Pro 6.3.0 by @fontawesome - https://fontawesome.com License - https://fontawesome.com/license (Commercial License) Copyright 2023 Fonticons, Inc. --><defs><style>.fa-secondary{opacity:.4}</style></defs><path class="fa-primary" d="M328 240h-80C234.8 240 224 250.8 224 264S234.8 288 248 288h50.47c-4.219 8.578-10.31 16.97-17.91 24.58c-30.19 30.22-82.94 30.22-113.1 0c-31.19-31.2-31.19-81.95 0-113.2C197.7 169.2 248.1 167.8 280 196.4c9.812 8.859 25 8.078 33.88-1.859c8.844-9.875 8-25.05-1.875-33.89c-50.53-45.3-130.6-43.06-178.5 4.875c-49.91 49.91-49.91 131.1 0 181C157.7 370.7 189.8 384 224 384s66.34-13.31 90.5-37.48c19.53-19.56 32.72-43.44 37.09-67.27C351.9 277.8 352 276.4 352 274.9V264C352 250.8 341.3 240 328 240z"/><path class="fa-secondary" d="M384 32H64C28.65 32 0 60.65 0 96v320c0 35.35 28.65 64 64 64h320c35.35 0 64-28.65 64-64V96C448 60.65 419.3 32 384 32zM352 274.9c0 1.453-.125 2.922-.4062 4.344c-4.375 23.83-17.56 47.7-37.09 67.27C290.3 370.7 258.2 384 224 384s-66.34-13.31-90.5-37.48c-49.91-49.91-49.91-131.1 0-181C181.4 117.5 261.5 115.3 312 160.6c9.875 8.844 10.72 24.02 1.875 33.89C305 204.4 289.8 205.2 280 196.4c-31.91-28.56-82.34-27.19-112.6 3.062c-31.19 31.2-31.19 81.95 0 113.2c30.19 30.22 82.94 30.22 113.1 0c7.594-7.609 13.69-16 17.91-24.58H248C234.8 288 224 277.3 224 264s10.75-24 24-24h80C341.3 240 352 250.8 352 264V274.9z"/></svg>
